public/brand/svg/logo-no-background.svg

<?xml version="1.0" encoding="UTF-8" standalone="no" ?>
<!DOCTYPE svg PUBLIC "-//W3C//DTD SVG 1.1//EN" "http://www.w3.org/Graphics/SVG/1.1/DTD/svg11.dtd">
<svg xmlns="http://www.w3.org/2000/svg" xmlns:xlink="http://www.w3.org/1999/xlink" version="1.1" width="600" height="337" viewBox="0 0 600 337" xml:space="preserve">
<desc>Created with Fabric.js 5.2.4</desc>
<defs>
</defs>
<g transform="matrix(1 0 0 1 300 168.5)" id="8c0d5bd7-632d-4572-8859-619c72955bd5"  >
<rect style="stroke: none; stroke-width: 1; stroke-dasharray: none; stroke-linecap: butt; stroke-dashoffset: 0; stroke-linejoin: miter; stroke-miterlimit: 4; fill: rgb(255,255,255); fill-rule: nonzero; opacity: 1; visibility: hidden;" vector-effect="non-scaling-stroke"  x="-300" y="-168.5" rx="0" ry="0" width="600" height="337" />
</g>
<g transform="matrix(Infinity NaN NaN Infinity 0 0)" id="d368cb8c-6e9d-4bc1-8f59-3a950bd6fd1a"  >
</g>
<g transform="matrix(1.18 0 0 1.18 300 168.5)"  >
<g style="" vector-effect="non-scaling-stroke"   >
		<g transform="matrix(0.7 0 0 0.7 -143.69 0)"  >
<rect style="stroke: none; stroke-width: 1; stroke-dasharray: none; stroke-linecap: butt; stroke-dashoffset: 0; stroke-linejoin: miter; stroke-miterlimit: 4; fill: rgb(175,71,232); fill-rule: nonzero; opacity: 1;" vector-effect="non-scaling-stroke"  x="-100.8635" y="-100.8635" rx="13" ry="13" width="201.727" height="201.727" />
</g>
		<g transform="matrix(0.96 0 0 0.96 82.75 0.29)"  >
<rect style="stroke: none; stroke-width: 1; stroke-dasharray: none; stroke-linecap: butt; stroke-dashoffset: 0; stroke-linejoin: miter; stroke-miterlimit: 4; fill: none; fill-rule: nonzero; opacity: 1;" vector-effect="non-scaling-stroke"  x="-137.424" y="-41.245" rx="0" ry="0" width="274.848" height="82.49" />
</g>
		<g transform="matrix(0.96 0 0 0.96 53.24 -5.47)"  >
<path style="stroke: none; stroke-width: 1; stroke-dasharray: none; stroke-linecap: butt; stroke-dashoffset: 0; stroke-linejoin: miter; stroke-miterlimit: 4; fill: rgb(118,48,155); fill-rule: nonzero; opacity: 1;" vector-effect="non-scaling-stroke"  transform=" translate(-830.3, -67.77)" d="M 748.463 96.97 Q 743.783 96.97 739.663 95.53999999999999 Q 735.533 94.11999999999999 732.473 91.57 Q 729.4029999999999 89.00999999999999 727.943 85.58 Q 727.213 84.19 727.913 83.02 Q 728.6030000000001 81.86 730.213 81.49 Q 731.453 81.19999999999999 732.6129999999999 81.82 Q 733.7829999999999 82.44 734.3729999999999 83.67999999999999 Q 735.323 85.64999999999999 737.3629999999999 87.22 Q 739.4029999999999 88.79 742.2929999999999 89.74 Q 745.1729999999999 90.69 748.4629999999999 90.69 Q 752.1029999999998 90.69 755.0629999999999 89.52 Q 758.0229999999999 88.35 759.8129999999999 86.13 Q 761.6029999999998 83.89999999999999 761.6029999999998 80.69 Q 761.6029999999998 76.6 758.4629999999999 73.46 Q 755.3229999999999 70.32 748.3829999999998 69.52 Q 739.5529999999998 68.57 734.5129999999998 64.19 Q 729.4829999999998 59.809999999999995 729.4829999999998 53.39 Q 729.4829999999998 48.71 732.0329999999998 45.39 Q 734.5929999999997 42.07 739.0429999999998 40.32 Q 743.4929999999998 38.57 749.1129999999998 38.57 Q 753.3529999999998 38.57 756.6729999999998 39.81 Q 759.9929999999997 41.050000000000004 762.4329999999998 43.2 Q 764.8829999999998 45.36 766.6329999999998 48.13 Q 767.5129999999998 49.59 767.3329999999999 50.870000000000005 Q 767.1429999999998 52.150000000000006 765.9829999999998 52.88 Q 764.6629999999998 53.61 763.2429999999998 53.17 Q 761.8129999999999 52.730000000000004 761.0829999999999 51.49 Q 759.9929999999998 49.52 758.3129999999999 48.06 Q 756.6329999999999 46.6 754.3329999999999 45.72 Q 752.0329999999999 44.85 748.8929999999998 44.85 Q 743.3529999999998 44.77 739.7729999999998 47 Q 736.1929999999998 49.23 736.1929999999998 53.68 Q 736.1929999999998 56.01 737.4029999999998 58.019999999999996 Q 738.6029999999998 60.029999999999994 741.6329999999998 61.529999999999994 Q 744.6629999999998 63.019999999999996 750.1329999999998 63.67999999999999 Q 758.9729999999998 64.69999999999999 763.6429999999998 69.03999999999999 Q 768.3129999999998 73.38999999999999 768.3129999999998 80.47 Q 768.3129999999998 84.56 766.7429999999997 87.62 Q 765.1729999999997 90.69 762.4029999999997 92.77000000000001 Q 759.6229999999997 94.85000000000001 756.0129999999997 95.91000000000001 Q 752.4029999999997 96.97000000000001 748.4629999999997 96.97000000000001 M 799.4729999999997 96.52000000000001 Q 793.7829999999997 96.52000000000001 789.2229999999997 93.89000000000001 Q 784.6529999999997 91.26000000000002 782.0329999999997 86.66000000000001 Q 779.4029999999997 82.07000000000001 779.3229999999996 76.37 L 779.3229999999996 42.57000000000001 Q 779.3229999999996 41.040000000000006 780.2729999999997 40.13000000000001 Q 781.2229999999997 39.21000000000001 782.6829999999997 39.21000000000001 Q 784.2229999999996 39.21000000000001 785.1329999999997 40.13000000000001 Q 786.0429999999997 41.040000000000006 786.0429999999997 42.57000000000001 L 786.0429999999997 63.010000000000005 Q 788.6029999999996 59.800000000000004 792.3229999999996 57.900000000000006 Q 796.0429999999997 56.00000000000001 800.6429999999997 56.00000000000001 Q 806.0429999999997 56.00000000000001 810.3529999999997 58.67000000000001 Q 814.6629999999997 61.33000000000001 817.1729999999998 65.9 Q 819.6929999999998 70.46000000000001 819.6929999999998 76.23 Q 819.6929999999998 81.99000000000001 817.0329999999998 86.59 Q 814.3629999999998 91.19 809.8029999999998 93.85000000000001 Q 805.2429999999998 96.52000000000001 799.4729999999997 96.52000000000001 M 799.4729999999997 90.53000000000002 Q 803.3429999999997 90.53000000000002 806.4429999999998 88.67000000000002 Q 809.5529999999998 86.81000000000002 811.3329999999997 83.56000000000002 Q 813.1229999999997 80.31000000000002 813.1229999999997 76.23000000000002 Q 813.1229999999997 72.14000000000001 811.3329999999997 68.93000000000002 Q 809.5529999999998 65.71000000000002 806.4429999999998 63.85000000000002 Q 803.3429999999997 61.99000000000002 799.4729999999997 61.99000000000002 Q 795.6029999999997 61.99000000000002 792.5029999999997 63.85000000000002 Q 789.4029999999997 65.71000000000002 787.6529999999997 68.93000000000002 Q 785.8929999999997 72.14000000000001 785.8929999999997 76.23000000000002 Q 785.8929999999997 80.31000000000002 787.6529999999997 83.56000000000002 Q 789.4029999999997 86.81000000000002 792.5029999999997 88.67000000000002 Q 795.6029999999997 90.53000000000002 799.4729999999997 90.53000000000002 M 840.4429999999998 96.24000000000001 L 839.9229999999998 96.24000000000001 Q 836.8629999999998 96.24000000000001 834.4529999999997 94.56 Q 832.0429999999997 92.88 830.6929999999998 89.92 Q 829.3429999999997 86.97 829.3429999999997 83.1 L 829.3429999999997 42.51 Q 829.3429999999997 41.05 830.2529999999997 40.14 Q 831.1629999999997 39.22 832.6229999999997 39.22 Q 834.1629999999997 39.22 835.0729999999998 40.14 Q 835.9829999999997 41.05 835.9829999999997 42.51 L 835.9829999999997 83.1 Q 835.9829999999997 85.94 837.1129999999997 87.77 Q 838.2529999999997 89.58999999999999 839.9229999999997 89.58999999999999 L 841.7529999999997 89.58999999999999 Q 843.1429999999997 89.58999999999999 843.9429999999998 90.50999999999999 Q 844.7429999999997 91.41999999999999 844.7429999999997 92.94999999999999 Q 844.7429999999997 94.40999999999998 843.5429999999997 95.32 Q 842.3329999999996 96.24 840.4429999999996 96.24 M 856.5029999999996 96.24 Q 854.9629999999996 96.24 854.0129999999996 95.28999999999999 Q 853.0629999999995 94.33999999999999 853.0629999999995 92.88 L 853.0629999999995 59.66 Q 853.0629999999995 58.129999999999995 854.0129999999996 57.22 Q 854.9629999999996 56.31 856.5029999999996 56.31 Q 857.9629999999996 56.31 858.9029999999996 57.22 Q 859.8529999999996 58.129999999999995 859.8529999999996 59.66 L 859.8529999999996 92.88 Q 859.8529999999996 94.33999999999999 858.9029999999996 95.28999999999999 Q 857.9629999999995 96.24 856.5029999999996 96.24 M 856.4229999999995 49.37 Q 854.6029999999995 49.37 853.2829999999996 48.059999999999995 Q 851.9729999999996 46.739999999999995 851.9729999999996 44.849999999999994 Q 851.9729999999996 42.949999999999996 853.3229999999996 41.669999999999995 Q 854.6729999999997 40.38999999999999 856.5029999999996 40.38999999999999 Q 858.2529999999996 40.38999999999999 859.6029999999996 41.669999999999995 Q 860.9529999999996 42.949999999999996 860.9529999999996 44.849999999999994 Q 860.9529999999996 46.739999999999995 859.6329999999996 48.059999999999995 Q 858.3229999999996 49.37 856.4229999999995 49.37 M 890.2229999999995 96.24 L 888.8329999999995 96.24 Q 885.1129999999995 96.24 882.1229999999995 94.38 Q 879.1329999999995 92.50999999999999 877.4529999999995 89.33999999999999 Q 875.7729999999996 86.15999999999998 875.7729999999996 82.07999999999998 L 875.7729999999996 46.96 Q 875.7729999999996 45.5 876.6829999999995 44.55 Q 877.5929999999995 43.599999999999994 879.0529999999995 43.599999999999994 Q 880.5129999999996 43.599999999999994 881.4629999999995 44.55 Q 882.4129999999994 45.5 882.4129999999996 46.959999999999994 L 882.4129999999996 82.07999999999998 Q 882.4129999999996 85.35999999999999 884.2329999999996 87.47999999999999 Q 886.0629999999996 89.58999999999999 888.8329999999996 89.58999999999999 L 891.1029999999996 89.58999999999999 Q 892.3429999999996 89.58999999999999 893.1829999999997 90.53999999999999 Q 894.0229999999997 91.49 894.0229999999997 92.94999999999999 Q 894.0229999999997 94.40999999999998 892.9629999999997 95.32 Q 891.9029999999998 96.24 890.2229999999997 96.24 M 889.4229999999998 63.529999999999994 L 871.8329999999997 63.529999999999994 Q 870.5129999999997 63.529999999999994 869.6429999999997 62.73 Q 868.7629999999997 61.93 868.7629999999997 60.69 Q 868.7629999999997 59.37 869.6429999999997 58.57 Q 870.5129999999997 57.77 871.8329999999997 57.77 L 889.4229999999998 57.77 Q 890.7329999999997 57.77 891.6129999999998 58.57 Q 892.4829999999998 59.37 892.4829999999998 60.69 Q 892.4829999999998 61.93 891.6129999999998 62.73 Q 890.7329999999998 63.529999999999994 889.4229999999998 63.529999999999994 M 932.1129999999998 61.48 L 906.7129999999999 94.62 L 901.8929999999998 90.97 L 927.6629999999998 57.54 Z M 930.1429999999998 96.22999999999999 L 904.3729999999998 96.22999999999999 Q 901.3129999999999 96.22999999999999 901.3129999999999 93.16 Q 901.3129999999999 90.02 904.3729999999998 90.02 L 930.1429999999998 90.02 Q 933.2129999999999 90.02 933.2129999999999 93.16 Q 933.2129999999999 96.22999999999999 930.1429999999998 96.22999999999999 M 929.5629999999998 62.49999999999999 L 903.8629999999997 62.49999999999999 Q 900.7229999999997 62.49999999999999 900.7229999999997 59.35999999999999 Q 900.7229999999997 56.29999999999999 903.8629999999997 56.29999999999999 L 929.5629999999998 56.29999999999999 Q 932.7029999999997 56.29999999999999 932.7029999999997 59.35999999999999 Q 932.7029999999997 62.49999999999999 929.5629999999998 62.49999999999999" stroke-linecap="round" />
</g>
		<g transform="matrix(0.68 -0.68 0.68 0.68 -145.58 7.24)"  >
<rect style="stroke: none; stroke-width: 1; stroke-dasharray: none; stroke-linecap: butt; stroke-dashoffset: 0; stroke-linejoin: miter; stroke-miterlimit: 4; fill: none; fill-rule: nonzero; opacity: 1;" vector-effect="non-scaling-stroke"  x="-26.61" y="-44.07" rx="0" ry="0" width="53.22" height="88.14" />
</g>
		<g transform="matrix(0.96 0 0 0.96 -149.86 3.41)"  >
<path style="stroke: none; stroke-width: 1; stroke-dasharray: none; stroke-linecap: butt; stroke-dashoffset: 0; stroke-linejoin: miter; stroke-miterlimit: 4; fill: rgb(118,48,155); fill-rule: nonzero; opacity: 1;" vector-effect="non-scaling-stroke"  transform=" translate(-617.71, -77.07)" d="M 639.713 98.61 Q 636.185 102.14 631.992 104.182 Q 627.799 106.224 623.5559999999999 106.608 Q 619.3059999999999 106.99600000000001 615.608 105.504 Q 614.01 105.009 613.6479999999999 103.602 Q 613.2959999999999 102.202 614.2359999999999 100.71000000000001 Q 614.9429999999999 99.55000000000001 616.3009999999999 99.14000000000001 Q 617.651 98.72300000000001 619.031 99.22500000000001 Q 621.237 99.989 623.9659999999999 99.635 Q 626.7029999999999 99.275 629.5949999999999 97.811 Q 632.487 96.34700000000001 634.9689999999999 93.86500000000001 Q 637.7259999999999 91.108 639.084 87.99600000000001 Q 640.434 84.87800000000001 640.102 81.846 Q 639.77 78.814 637.345 76.38600000000001 Q 634.255 73.296 629.51 73.30300000000001 Q 624.765 73.296 618.917 77.927 Q 611.527 83.888 604.4150000000001 84.38300000000001 Q 597.3030000000001 84.87800000000001 592.45 80.02700000000002 Q 588.9150000000001 76.49200000000002 588.3420000000001 72.05800000000002 Q 587.7620000000001 67.61800000000002 589.7990000000001 62.922000000000025 Q 591.835 58.242000000000026 596.085 53.992000000000026 Q 599.2810000000001 50.79600000000003 602.7320000000001 49.22600000000003 Q 606.1750000000001 47.64900000000003 609.6540000000001 47.43600000000003 Q 613.1340000000001 47.21100000000003 616.5490000000001 47.98100000000003 Q 618.3160000000001 48.42100000000003 619.1440000000001 49.53100000000003 Q 619.9710000000001 50.626000000000026 619.6390000000001 52.06100000000003 Q 619.1930000000001 53.611000000000026 617.7860000000002 54.352000000000025 Q 616.3790000000001 55.09500000000003 614.8940000000001 54.712000000000025 Q 612.5740000000001 54.04800000000002 610.2060000000001 54.212000000000025 Q 607.8300000000002 54.382000000000026 605.4400000000002 55.45500000000003 Q 603.0360000000002 56.53000000000003 600.6670000000001 58.89900000000003 Q 596.4170000000001 63.03600000000003 595.3990000000001 67.41900000000003 Q 594.3740000000001 71.81100000000002 597.7390000000001 75.17700000000002 Q 599.4990000000001 76.93700000000003 601.9330000000001 77.54500000000002 Q 604.3580000000001 78.14600000000002 607.7730000000001 76.99500000000002 Q 611.1960000000001 75.83500000000002 615.8270000000001 72.19300000000001 Q 623.2800000000001 66.29500000000002 630.0900000000001 66.04800000000002 Q 636.9000000000001 65.80000000000001 642.2450000000001 71.14600000000002 Q 645.3350000000002 74.23600000000002 646.4730000000001 77.73600000000002 Q 647.5980000000001 81.23600000000002 647.081 84.90600000000002 Q 646.551 88.57600000000002 644.621 92.10600000000002 Q 642.6909999999999 95.63600000000002 639.713 98.61000000000003" stroke-linecap="round" />
</g>
		<g transform="matrix(0.68 -0.68 0.68 0.68 -142.63 4.3)"  >
<rect style="stroke: none; stroke-width: 1; stroke-dasharray: none; stroke-linecap: butt; stroke-dashoffset: 0; stroke-linejoin: miter; stroke-miterlimit: 4; fill: none; fill-rule: nonzero; opacity: 1;" vector-effect="non-scaling-stroke"  x="-26.61" y="-44.07" rx="0" ry="0" width="53.22" height="88.14" />
</g>
		<g transform="matrix(0.96 0 0 0.96 -146.91 0.47)"  >
<path style="stroke: none; stroke-width: 1; stroke-dasharray: none; stroke-linecap: butt; stroke-dashoffset: 0; stroke-linejoin: miter; stroke-miterlimit: 4; fill: rgb(255,255,255); fill-rule: nonzero; opacity: 1;" vector-effect="non-scaling-stroke"  transform=" translate(-620.8, -73.99)" d="M 642.802 95.533 Q 639.272 99.063 635.08 101.105 Q 630.888 103.147 626.644 103.531 Q 622.394 103.921 618.696 102.42800000000001 Q 617.0980000000001 101.933 616.738 100.52600000000001 Q 616.384 99.126 617.3240000000001 97.63300000000001 Q 618.032 96.47300000000001 619.3890000000001 96.06300000000002 Q 620.7390000000001 95.64600000000002 622.1190000000001 96.14900000000002 Q 624.3250000000002 96.91200000000002 627.0540000000001 96.55900000000001 Q 629.791 96.19900000000001 632.6830000000001 94.73400000000001 Q 635.5750000000002 93.269 638.0570000000001 90.78900000000002 Q 640.8150000000002 88.03100000000002 642.1720000000001 84.91900000000001 Q 643.5220000000002 81.80100000000002 643.1900000000002 78.769 Q 642.8580000000002 75.737 640.4330000000002 73.30900000000001 Q 637.3430000000002 70.21900000000001 632.5980000000002 70.22600000000001 Q 627.8530000000002 70.21900000000001 622.0050000000002 74.85000000000001 Q 614.6150000000002 80.811 607.5030000000003 81.30600000000001 Q 600.3910000000003 81.80100000000002 595.5380000000002 76.95100000000001 Q 592.0030000000003 73.415 591.4300000000003 68.98100000000001 Q 590.8500000000003 64.54100000000001 592.8870000000003 59.84600000000001 Q 594.9230000000002 55.16600000000001 599.1730000000002 50.91600000000001 Q 602.3690000000003 47.71900000000001 605.8200000000003 46.14900000000001 Q 609.2630000000003 44.57200000000001 612.7420000000003 44.36000000000001 Q 616.2220000000003 44.13400000000001 619.6370000000003 44.90500000000001 Q 621.4040000000003 45.34300000000001 622.2320000000003 46.45300000000001 Q 623.0590000000003 47.54900000000001 622.7270000000003 48.985000000000014 Q 622.2810000000003 50.533000000000015 620.8740000000004 51.27500000000001 Q 619.4670000000003 52.018000000000015 617.9820000000003 51.63600000000001 Q 615.6620000000003 50.97100000000001 613.2940000000003 51.13400000000001 Q 610.9180000000003 51.30400000000001 608.5280000000004 52.379000000000005 Q 606.1240000000004 53.453 603.7550000000003 55.822 Q 599.5050000000003 59.959 598.4870000000003 64.342 Q 597.4620000000003 68.734 600.8270000000003 72.1 Q 602.5870000000003 73.86 605.0210000000003 74.47 Q 607.4460000000003 75.07 610.8610000000003 73.917 Q 614.2840000000003 72.757 618.9150000000003 69.117 Q 626.3680000000003 63.21900000000001 633.1780000000003 62.971000000000004 Q 639.9880000000004 62.723 645.3330000000003 68.069 Q 648.4230000000003 71.159 649.5610000000003 74.659 Q 650.6860000000003 78.159 650.1700000000003 81.82900000000001 Q 649.6400000000003 85.49900000000001 647.7090000000003 89.02900000000001 Q 645.7780000000002 92.55900000000001 642.8020000000002 95.53300000000002" stroke-linecap="round" />
</g>
		<g transform="matrix(1 0 0 1 0 0)"  >
<path style="stroke: rgb(255,255,255); stroke-opacity: 0; stroke-width: 1; stroke-dasharray: none; stroke-linecap: butt; stroke-dashoffset: 0; stroke-linejoin: miter; stroke-miterlimit: 4; fill: rgb(255,255,255); fill-opacity: 0; fill-rule: nonzero; opacity: 1;" vector-effect="non-scaling-stroke"  transform=" translate(-750, -73.5)" d="M 526 0 L 974 0 L 974 147 L 526 147 z" stroke-linecap="round" />
</g>
</g>
</g>
</svg>

<svg xmlns="http://www.w3.org/2000/svg" xml:space="preserve" width="1500" height="147" data-id="lg_BdR8Jvhp02mMhkTw6R" data-version="1" viewBox="0 0 1500 147"><g data-padding="20"><g transform="translate(10 3.281)scale(.95536)"><rect width="201.727" height="201.727" x="488.921" y="-548.398" fill="#af47e8" rx="13" ry="13" transform="matrix(.73 0 0 .73 193.63 400.2)"/><rect width="274.848" height="82.49" x="293.119" y="-367.945" fill="none" rx="0" ry="0" transform="translate(430.65 400.5)"/><path fill="#76309b" d="M748.463 96.97q-4.68 0-8.8-1.43-4.13-1.42-7.19-3.97-3.07-2.56-4.53-5.99-.73-1.39-.03-2.56.69-1.16 2.3-1.53 1.24-.29 2.4.33 1.17.62 1.76 1.86.95 1.97 2.99 3.54t4.93 2.52q2.88.95 6.17.95 3.64 0 6.6-1.17t4.75-3.39q1.79-2.23 1.79-5.44 0-4.09-3.14-7.23t-10.08-3.94q-8.83-.95-13.87-5.33-5.03-4.38-5.03-10.8 0-4.68 2.55-8 2.56-3.32 7.01-5.07t10.07-1.75q4.24 0 7.56 1.24t5.76 3.39q2.45 2.16 4.2 4.93.88 1.46.7 2.74-.19 1.28-1.35 2.01-1.32.73-2.74.29-1.43-.44-2.16-1.68-1.09-1.97-2.77-3.43t-3.98-2.34q-2.3-.87-5.44-.87-5.54-.08-9.12 2.15t-3.58 6.68q0 2.33 1.21 4.34 1.2 2.01 4.23 3.51 3.03 1.49 8.5 2.15 8.84 1.02 13.51 5.36 4.67 4.35 4.67 11.43 0 4.09-1.57 7.15-1.57 3.07-4.34 5.15-2.78 2.08-6.39 3.14t-7.55 1.06m51.01-.45q-5.69 0-10.25-2.63-4.57-2.63-7.19-7.23-2.63-4.59-2.71-10.29v-33.8q0-1.53.95-2.44.95-.92 2.41-.92 1.54 0 2.45.92.91.91.91 2.44v20.44q2.56-3.21 6.28-5.11t8.32-1.9q5.4 0 9.71 2.67 4.31 2.66 6.82 7.23 2.52 4.56 2.52 10.33 0 5.76-2.66 10.36-2.67 4.6-7.23 7.26-4.56 2.67-10.33 2.67m0-5.99q3.87 0 6.97-1.86 3.11-1.86 4.89-5.11 1.79-3.25 1.79-7.33 0-4.09-1.79-7.3-1.78-3.22-4.89-5.08-3.1-1.86-6.97-1.86t-6.97 1.86-4.85 5.08q-1.76 3.21-1.76 7.3 0 4.08 1.76 7.33 1.75 3.25 4.85 5.11t6.97 1.86m40.97 5.71h-.52q-3.06 0-5.47-1.68t-3.76-4.64q-1.35-2.95-1.35-6.82V42.51q0-1.46.91-2.37.91-.92 2.37-.92 1.54 0 2.45.92.91.91.91 2.37V83.1q0 2.84 1.13 4.67 1.14 1.82 2.81 1.82h1.83q1.39 0 2.19.92.8.91.8 2.44 0 1.46-1.2 2.37-1.21.92-3.1.92m16.06 0q-1.54 0-2.49-.95t-.95-2.41V59.66q0-1.53.95-2.44t2.49-.91q1.46 0 2.4.91.95.91.95 2.44v33.22q0 1.46-.95 2.41-.94.95-2.4.95m-.08-46.87q-1.82 0-3.14-1.31-1.31-1.32-1.31-3.21 0-1.9 1.35-3.18t3.18-1.28q1.75 0 3.1 1.28t1.35 3.18q0 1.89-1.32 3.21-1.31 1.31-3.21 1.31m33.8 46.87h-1.39q-3.72 0-6.71-1.86-2.99-1.87-4.67-5.04-1.68-3.18-1.68-7.26V46.96q0-1.46.91-2.41t2.37-.95 2.41.95.95 2.41v35.12q0 3.28 1.82 5.4 1.83 2.11 4.6 2.11h2.27q1.24 0 2.08.95t.84 2.41-1.06 2.37q-1.06.92-2.74.92m-.8-32.71h-17.59q-1.32 0-2.19-.8-.88-.8-.88-2.04 0-1.32.88-2.12.87-.8 2.19-.8h17.59q1.31 0 2.19.8.87.8.87 2.12 0 1.24-.87 2.04-.88.8-2.19.8m42.69-2.05-25.4 33.14-4.82-3.65 25.77-33.43Zm-1.97 34.75h-25.77q-3.06 0-3.06-3.07 0-3.14 3.06-3.14h25.77q3.07 0 3.07 3.14 0 3.07-3.07 3.07m-.58-33.73h-25.7q-3.14 0-3.14-3.14 0-3.06 3.14-3.06h25.7q3.14 0 3.14 3.06 0 3.14-3.14 3.14"/><rect width="53.22" height="88.14" x="508.841" y="29.358" fill="none" rx="0" ry="0" transform="rotate(-45 588.064 -27.458)"/><path fill="#76309b" d="M639.713 98.61q-3.528 3.53-7.721 5.572t-8.436 2.426q-4.25.388-7.948-1.104-1.598-.495-1.96-1.902-.352-1.4.588-2.892.707-1.16 2.065-1.57 1.35-.417 2.73.085 2.206.764 4.935.41 2.737-.36 5.629-1.824t5.374-3.946q2.757-2.757 4.115-5.869 1.35-3.118 1.018-6.15t-2.757-5.46q-3.09-3.09-7.835-3.083-4.745-.007-10.593 4.624-7.39 5.961-14.502 6.456t-11.965-4.356q-3.535-3.535-4.108-7.969-.58-4.44 1.457-9.136 2.036-4.68 6.286-8.93 3.196-3.196 6.647-4.766 3.443-1.577 6.922-1.79 3.48-.225 6.895.545 1.767.44 2.595 1.55.827 1.095.495 2.53-.446 1.55-1.853 2.291-1.407.743-2.892.36-2.32-.664-4.688-.5-2.376.17-4.766 1.243-2.404 1.075-4.773 3.444-4.25 4.137-5.268 8.52-1.025 4.392 2.34 7.758 1.76 1.76 4.194 2.368 2.425.601 5.84-.55 3.423-1.16 8.054-4.802 7.453-5.898 14.263-6.145 6.81-.248 12.155 5.098 3.09 3.09 4.228 6.59 1.125 3.5.608 7.17-.53 3.67-2.46 7.2t-4.908 6.504"/><rect width="53.22" height="88.14" x="508.841" y="29.358" fill="none" rx="0" ry="0" transform="rotate(-45 585.893 -32.724)"/><path fill="#fff" d="M642.802 95.533q-3.53 3.53-7.722 5.572t-8.436 2.426q-4.25.39-7.948-1.103-1.598-.495-1.958-1.902-.354-1.4.586-2.893.708-1.16 2.065-1.57 1.35-.417 2.73.086 2.206.763 4.935.41 2.737-.36 5.629-1.825t5.374-3.945q2.758-2.758 4.115-5.87 1.35-3.118 1.018-6.15t-2.757-5.46q-3.09-3.09-7.835-3.083-4.745-.007-10.593 4.624-7.39 5.961-14.502 6.456t-11.965-4.355q-3.535-3.536-4.108-7.97-.58-4.44 1.457-9.135 2.036-4.68 6.286-8.93 3.196-3.197 6.647-4.767 3.443-1.577 6.922-1.789 3.48-.226 6.895.545 1.767.438 2.595 1.548.827 1.096.495 2.532-.446 1.548-1.853 2.29-1.407.743-2.892.361-2.32-.665-4.688-.502-2.376.17-4.766 1.245-2.404 1.074-4.773 3.443-4.25 4.137-5.268 8.52-1.025 4.392 2.34 7.758 1.76 1.76 4.194 2.37 2.425.6 5.84-.553 3.423-1.16 8.054-4.8 7.453-5.898 14.263-6.146t12.155 5.098q3.09 3.09 4.228 6.59 1.125 3.5.609 7.17-.53 3.67-2.461 7.2t-4.907 6.504"/></g><path fill="transparent" stroke="transparent" d="M526 0h448v147H526z"/></g></svg>
